packages/katcn/src/icons/svg/filter.svg

<svg width="24" height="25" viewBox="0 0 24 25" fill="none" xmlns="http://www.w3.org/2000/svg">
<path fill-rule="evenodd" clip-rule="evenodd" d="M2.74764 6.80081C1.13541 5.18584 2.29295 2.31201 4.62619 2.31201H19.3738C21.7071 2.31201 22.8646 5.18582 21.2524 6.80079C21.2515 6.80175 21.2505 6.80272 21.2495 6.80369L15.428 12.7034V17.8613C15.428 18.6898 15.0256 19.5686 14.2527 20.0479L11.397 22.0087L11.3852 22.0167C10.7492 22.4401 10.0171 22.3672 9.49095 22.0567C8.9756 21.7526 8.57205 21.1746 8.57205 20.4658V12.7034L2.74764 6.80081ZM4.0557 4.71477C3.94928 4.9729 3.9979 5.22286 4.16383 5.38858L4.16899 5.39373L10.2839 11.5907C10.4685 11.7778 10.5721 12.0301 10.5721 12.293V20.149L13.1426 18.3841C13.1595 18.3724 13.1769 18.3613 13.1946 18.3507C13.3013 18.2867 13.428 18.0998 13.428 17.8613V12.293C13.428 12.0301 13.5315 11.7778 13.7162 11.5907L19.8362 5.38856C20.0021 5.22284 20.0508 4.9729 19.9443 4.71477C19.8401 4.46186 19.632 4.31201 19.3738 4.31201H4.62619C4.36808 4.31201 4.15998 4.46186 4.0557 4.71477Z" fill="black"/>
</svg>

<svg xmlns="http://www.w3.org/2000/svg" fill="none" viewBox="0 0 24 25"><path fill="#000" fill-rule="evenodd" d="M2.748 6.8c-1.613-1.614-.455-4.488 1.878-4.488h14.748c2.333 0 3.49 2.874 1.878 4.489l-.002.003-5.822 5.9v5.157c0 .829-.402 1.708-1.175 2.187l-2.856 1.96-.012.009c-.636.423-1.368.35-1.894.04a1.85 1.85 0 0 1-.919-1.591v-7.763zm1.308-2.085c-.107.258-.058.508.108.674l.005.005 6.115 6.197a1 1 0 0 1 .288.702v7.856l2.57-1.765.053-.033c.106-.064.233-.251.233-.49v-5.568a1 1 0 0 1 .288-.702l6.12-6.202c.166-.166.215-.416.108-.674-.104-.253-.312-.403-.57-.403H4.626c-.258 0-.466.15-.57.403" clip-rule="evenodd"/></svg>
